X:1
T:The Lad O' Paton's Mill
M:4/4
L:1/4
K:A
 A c cB/2-c/2| e B Bc/2-B/2| A c cB/2-c/2| e3 c| A c cB/2-A/2| e B B c/2B/2|\
 A E A B| c2 c3/2 B/2| A2 A3/2 F/2| F E2 c| d- c B A| e2 c3/2 B/2|\
 A2 A3/2 F/2| F E2 z| e e B B| A3 z|
